X:1
T:Bingo
C:Anonymous
M:4/4
L:1/4
K:D
|A,|"D"D D A, A,|"G"B, B, "D"A, A,|"G"D D "A7"E E|
w:There was a farm-er had a dog and Bin-go was his
w:There was a farm-er had a dog and Bin-go was his
w:There was a farm-er had a dog and Bin-go was his
w:There was a farm-er had a dog and Bin-go was his
w:There was a farm-er had a dog and Bin-go was his
w:There was a farm-er had a dog and Bin-go was his
w:There was a farm-er had a dog and Bin-go was his
|"D"F2 D2|F2 F2|"G"G G G2|"A7"E2 E2|"D"F F F2|
w:name-o. B-I-N-G-O B-I-N-G-O
w:name-o. (CLAP)-I-N-G-O (CLAP)-I-N-G-O
w:name-o. (CLAP)-(CLAP)-N-G-O (CLAP)-(CLAP)-N-G-O
w:name-o. (CLAP)-(CLAP)-(CLAP)-G-O (CLAP)-(CLAP)-(CLAP)-G-O
w:name-o. (CLAP)-(CLAP)-(CLAP)-(CLAP)-O (CLAP)-(CLAP)-(CLAP)-(CLAP)-O
w:name-o. (CLAP)-(CLAP)-(CLAP)-(CLAP)-(CLAP) (CLAP)-(CLAP)-(CLAP)-(CLAP)-(CLAP)
w:name-o. B-I-N-G-O B-I-N-G-O
|"Bm"D2 D2|"E7"E E E D|"A7"C A, B, C|"D"D2 D|
w:B-I-N-G-O, and Bin-go was his name-o.
w:(CLAP)-I-N-G-O, and Bin-go was his name-o.
w:(CLAP)-(CLAP)-N-G-O, and Bin-go was his name-o.
w:(CLAP)-(CLAP)-(CLAP)-G-O, and Bin-go was his name-o.
w:(CLAP)-(CLAP)-(CLAP)-(CLAP)-O, and Bin-go was his name-o.
w:(CLAP)-(CLAP)-(CLAP)-(CLAP)-(CLAP), and Bin-go was his name-o.
w:B-I-N-G-O, and Bin-go was his name-o.
